X: 1987
T: Yetmez mi Sana
C: Rahmi Bey
O: Turkey
F: http://compmusic.upf.edu/node/140
N: muhayyer--sarki--curcuna--yetmez_mi_sana--rahmi_bey
N: makam= muhayyer
N: form= sarki
N: usul= curcuna = 10/8
M: 10/8
L: 1/16
K: C _2/4B ^3/4f  
Q: 1/4=180
%%MIDI tuningsystem comma53
f2g2 a2b2 c'2b2 a2g2 ^2/4f2e2  | d2e2 ^2/4f2a2 g2=f2 e2d2 c2B2  | \
w:  ARANAĞME  |   | 
=f2e2 d2f2 e2d2 c2B2 A2G2  | 
w:   | 
A2B2 c2d2 e2f2 g2a4z2  | f2g2 a2b2 c'2b2 a2g2 ^2/4f2e2  | \
w:   |  ARANAĞME  | 
d2e2 ^2/4f2a2 g2=f2 e2d2 c2B2  | 
w:   | 
=f2e2 d2f2 e2d2 c2B2 A2G2  | A4 =f2e2 d2c2 B2A4z2  | \
w:   |   | 
g6a4a8-a2  | 
w:  Yet *  mez   | 
b2a2 g2b2 a2a8z2  | _1/4b4 g2g2 f2f2 e2e4f2  | \
w:  mi  *  *  sa *  na   |  bis *  ter_ *  ü  *  ba  | 
d2e2 f2g2 a2g2 f2{a}b4a2  | 
w:  lin  *  *  *  *  ku *  *  ca  | 
a3g =f2e2 d2c2 B2A4z2  | g6a4a8-a2  | \
w:  ğım   SAZ  |  Yet *  mez   | 
b2a2 g2b2 a2a8z2  | _1/4b4 g2g2 f2f2 e2e4f2  | 
w:  mi  *  *  sa *  na   |  bis *  ter_ *  ü  *  ba  | 
d2e2 f2g2 a2g2 f2{a}b4a2  | a4 b2a2 g2f2 g2a4z2  | \
w:  lin  *  *  *  *  ku *  *  ca  |  ğım   SAZ  | 
g6a4a2 g2=f2 e2f2  | 
w:  Serd_ *  ol  | 
c'2_1/4b2 d'2c'2 _7/8b2a2 g2=f2 e2d2  | \
w:  du  *  *  ha *  va   | 
d4 c2d2 e2c2 B2A6  | a6e2 d2c2 B2B2 {c}B2A2  | 
w:  çık *  ma  *  ko *  yun  |  dan  ku *  zu *  ca  | 
A3B c2d2 e2f2 g2a4z2  | g6a4a2 g2=f2 e2f2  | \
w:  ğım   SAZ  |  Serd_ *  ol  | 
c'2_1/4b2 d'2c'2 _7/8b2a2 g2=f2 e2d2  | 
w:  du  *  *  ha *  va   | 
d4 c2d2 e2c2 B2A6  | a6e2 d2c2 B2B2 {c}B2A2  | \
w:  çık *  ma  *  ko *  yun  |  dan  ku *  zu *  ca  | 
A6c'4b2 d'2c'4z2  | 
w:  ğım   SAZ  | 
c'8-c'2c'2 b2b4a2  | b4 a2c'2 b2a2 g2a4z2  | \
w:  Â teş  |  lik  *  e *  der  | 
c'4 b2a2 g2f2 e2d4e2  | 
w:  sa *  na  *  bu  *  sî  | 
f4 g2a2 b2g2 f2b2 {c'}b2a2  | c'8-c'2b2 d'2c'4z2  | \
w:  nem *  de *  ki  *  da  |  ğım    | 
c'8-c'2c'2 b2b4a2  | 
w:  Â teş  | 
b4 a2c'2 b2a2 g2a4z2  | c'4 b2a2 g2f2 e2d4e2  | \
w:  lik  *  e *  der  |  sa *  na  *  bu  *  sî  | 
f4 g2a2 b2g2 f2b2 {c'}b2a2  | 
w:  nem *  de *  ki  *  da  | 
a4 b2a2 g2f2 g2a4z2  | g6a4a2 g2=f2 e2f2  | \
w:  ğım   SAZ  |  Serd_ *  ol  | 
c'2_1/4b2 d'2c'2 _7/8b2a2 g2=f2 e2d2  | 
w:  du  *  *  ha *  va   | 
d4 c2d2 e2c2 B2A6  | a6e2 d2c2 B2B2 {c}B2A2  | \
w:  çık *  ma  *  ko *  yun  |  dan  ku *  zu *  ca  | 
A3B c2d2 e2f2 g2a4z2  | 
w:  ğım   SAZ  | 
g6a4a2 g2=f2 e2f2  | c'2_1/4b2 d'2c'2 _7/8b2a2 g2=f2 e2d2  | \
w:  Serd_ *  ol  |  du  *  *  ha *  va   | 
d4 c2d2 e2c2 B2A6  | 
w:  çık *  ma  *  ko *  yun  | 
a6e2 d2c2 B2B2 {c}B2A2  | A6|
w:  dan  ku *  zu *  ca  |  ğım    | 


